src/svg/uf1ec-calculator.svg

<svg xmlns="http://www.w3.org/2000/svg" width="30" height="32"><path d="M6.857 27.429c0-1.268-1.018-2.286-2.286-2.286s-2.286 1.018-2.286 2.286 1.018 2.286 2.286 2.286 2.286-1.018 2.286-2.286zm6.857 0c0-1.268-1.018-2.286-2.286-2.286s-2.286 1.018-2.286 2.286 1.018 2.286 2.286 2.286 2.286-1.018 2.286-2.286zm-6.857-6.858c0-1.268-1.018-2.286-2.286-2.286s-2.286 1.018-2.286 2.286 1.018 2.286 2.286 2.286 2.286-1.018 2.286-2.286zm13.714 6.858c0-1.268-1.018-2.286-2.286-2.286s-2.286 1.018-2.286 2.286 1.018 2.286 2.286 2.286 2.286-1.018 2.286-2.286zm-6.857-6.858c0-1.268-1.018-2.286-2.286-2.286s-2.286 1.018-2.286 2.286 1.018 2.286 2.286 2.286 2.286-1.018 2.286-2.286zm-6.857-6.857c0-1.268-1.018-2.286-2.286-2.286s-2.286 1.018-2.286 2.286S3.303 16 4.571 16s2.286-1.018 2.286-2.286zm13.714 6.857c0-1.268-1.018-2.286-2.286-2.286s-2.286 1.018-2.286 2.286 1.018 2.286 2.286 2.286 2.286-1.018 2.286-2.286zm-6.857-6.857c0-1.268-1.018-2.286-2.286-2.286s-2.286 1.018-2.286 2.286S10.16 16 11.428 16s2.286-1.018 2.286-2.286zm13.715 13.715v-6.857a2.302 2.302 0 0 0-2.286-2.286 2.302 2.302 0 0 0-2.286 2.286v6.857a2.302 2.302 0 0 0 2.286 2.286 2.302 2.302 0 0 0 2.286-2.286zm-6.858-13.715c0-1.268-1.018-2.286-2.286-2.286s-2.286 1.018-2.286 2.286S17.017 16 18.285 16s2.286-1.018 2.286-2.286zM27.429 8V3.429c0-.625-.518-1.143-1.143-1.143H3.429c-.625 0-1.143.518-1.143 1.143V8c0 .625.518 1.143 1.143 1.143h22.857c.625 0 1.143-.518 1.143-1.143zm0 5.714c0-1.268-1.018-2.286-2.286-2.286s-2.286 1.018-2.286 2.286S23.875 16 25.143 16s2.286-1.018 2.286-2.286zm2.285-11.428v27.429a2.302 2.302 0 0 1-2.286 2.286H2.285a2.302 2.302 0 0 1-2.286-2.286V2.286A2.302 2.302 0 0 1 2.285 0h25.143a2.302 2.302 0 0 1 2.286 2.286z"/></svg>

<!-- Generated by IcoMoon.io -->
<svg version="1.1" xmlns="http://www.w3.org/2000/svg" width="30" height="32" viewBox="0 0 30 32">
<path d="M6.857 27.429c0-1.268-1.018-2.286-2.286-2.286s-2.286 1.018-2.286 2.286 1.018 2.286 2.286 2.286 2.286-1.018 2.286-2.286zM13.714 27.429c0-1.268-1.018-2.286-2.286-2.286s-2.286 1.018-2.286 2.286 1.018 2.286 2.286 2.286 2.286-1.018 2.286-2.286zM6.857 20.571c0-1.268-1.018-2.286-2.286-2.286s-2.286 1.018-2.286 2.286 1.018 2.286 2.286 2.286 2.286-1.018 2.286-2.286zM20.571 27.429c0-1.268-1.018-2.286-2.286-2.286s-2.286 1.018-2.286 2.286 1.018 2.286 2.286 2.286 2.286-1.018 2.286-2.286zM13.714 20.571c0-1.268-1.018-2.286-2.286-2.286s-2.286 1.018-2.286 2.286 1.018 2.286 2.286 2.286 2.286-1.018 2.286-2.286zM6.857 13.714c0-1.268-1.018-2.286-2.286-2.286s-2.286 1.018-2.286 2.286 1.018 2.286 2.286 2.286 2.286-1.018 2.286-2.286zM20.571 20.571c0-1.268-1.018-2.286-2.286-2.286s-2.286 1.018-2.286 2.286 1.018 2.286 2.286 2.286 2.286-1.018 2.286-2.286zM13.714 13.714c0-1.268-1.018-2.286-2.286-2.286s-2.286 1.018-2.286 2.286 1.018 2.286 2.286 2.286 2.286-1.018 2.286-2.286zM27.429 27.429v-6.857c0-1.25-1.036-2.286-2.286-2.286v0c-1.25 0-2.286 1.036-2.286 2.286v6.857c0 1.25 1.036 2.286 2.286 2.286v0c1.25 0 2.286-1.036 2.286-2.286zM20.571 13.714c0-1.268-1.018-2.286-2.286-2.286s-2.286 1.018-2.286 2.286 1.018 2.286 2.286 2.286 2.286-1.018 2.286-2.286zM27.429 8v-4.571c0-0.625-0.518-1.143-1.143-1.143h-22.857c-0.625 0-1.143 0.518-1.143 1.143v4.571c0 0.625 0.518 1.143 1.143 1.143h22.857c0.625 0 1.143-0.518 1.143-1.143zM27.429 13.714c0-1.268-1.018-2.286-2.286-2.286s-2.286 1.018-2.286 2.286 1.018 2.286 2.286 2.286 2.286-1.018 2.286-2.286zM29.714 2.286v27.429c0 1.25-1.036 2.286-2.286 2.286h-25.143c-1.25 0-2.286-1.036-2.286-2.286v-27.429c0-1.25 1.036-2.286 2.286-2.286h25.143c1.25 0 2.286 1.036 2.286 2.286z"></path>
</svg>
